X: 599
T: Ping diao
%%abc-version 2.0
%%abcx-abcm2ps-target-version 5.9.1 (29 Sep 2008)
%%abc-creator hum2abc beta
%%abcx-conversion-date 2013/10/02 07:52:30
%%abc-edited-by Helmut Schaffrath
%%humdrum-veritas 2940184848
%%humdrum-veritas-data 3922011956
%%continueall 1
%%barnumbers 0
L: 1/8
M: 2/4
K: F
c> c c c [I:setbarnb 1]| 
f f d f | 
g> f f d | 
g c' g f | 
d c d A | 
c2f2 | 
d> c A G | 
F4 | 
c> A G F | 
Gc2A | 
c A G F | 
G AG2 | 
c> c c c | 
f f d f | 
g> c' g d | 
c4 |]  



